logos/survicate.svg

<?xml version="1.0" encoding="UTF-8"?>
<svg width="512px" height="96px" viewBox="0 0 512 96" version="1.1" xmlns="http://www.w3.org/2000/svg" preserveAspectRatio="xMidYMid">
    <title>Survicate</title>
    <g>
        <path d="M23.8467115,22.2995776 L23.8467115,0.0105820106 C17.5353498,0.0105820106 11.4813697,2.52396495 7.01142011,7.00004233 C2.65050685,11.3669418 0.14431911,17.2544366 0.00593143378,23.4265764 L0,23.9665575 C0.0211216254,30.2955005 2.53455983,36.3585016 6.99129228,40.8318646 C11.3392948,45.1958568 17.1921899,47.7005214 23.3252467,47.8346945 L23.8448152,47.8403048 C30.1443386,47.8240508 36.1816042,45.3041439 40.6381714,40.8310519 C45.0944677,36.3579598 47.6076021,30.2949587 47.6287323,23.9665575 L47.6287323,0.0105820106 C41.5925503,0.0123545058 35.7817566,2.31356004 31.3682624,6.45006222 C26.9546057,10.5865617 24.2667412,16.2505278 23.8467115,22.2995776 Z M71.4088296,47.8468063 L95.2555685,47.8468063 C95.253672,41.7835344 92.9634878,35.9461926 88.8460868,31.5126519 C84.7289566,27.078786 79.0912677,24.3784059 73.0699852,23.9559924 L95.2555685,23.9559924 C95.2561101,17.6158883 92.7546243,11.534168 88.2991407,7.04368423 C83.9525917,2.66271649 78.091971,0.144984466 71.9481473,0.00595879653 L71.4107259,0 C65.1098751,0.0197045232 59.0728804,2.54399255 54.6187513,7.02130794 C50.2732595,11.3893967 47.7793599,17.2699587 47.6457011,23.4320746 L47.6401101,23.954069 C47.656364,30.2833101 50.165164,36.3487492 54.6187513,40.8256339 C59.0723386,45.3025185 65.1085206,47.8267598 71.4088296,47.8468063 Z M23.8572766,47.8465354 L0.0105820106,47.8465354 C0.0105820106,53.9079111 2.29867683,59.7436275 6.4124072,64.1777101 C10.5261511,68.6120635 16.1601287,71.3145566 22.1788648,71.7412233 L0.0105820106,71.7412233 C0.0105820106,78.0813545 2.51256279,84.1630476 6.96826582,88.6529354 C11.3153169,93.0335781 17.17595,95.5510254 23.319774,95.6895855 L23.8572766,95.695509 C30.1573418,95.6741079 36.1927111,93.1493249 40.6454857,88.6721693 C44.989656,84.3042127 47.4830077,78.4245048 47.6163891,72.26316 L47.6219598,71.7412233 C47.6065185,65.4124698 45.0982603,59.3470307 40.6454857,54.8698751 C36.1927111,50.3927196 30.1573418,47.8676656 23.8572766,47.8465354 Z M71.4868487,47.8543915 L71.4277926,47.8543915 C65.1269418,47.8695619 59.0880508,50.3894688 54.6309418,54.8636444 C50.1735619,59.3378201 47.6604275,65.4021757 47.6401101,71.7320127 L47.6401101,95.6879241 C53.6752085,95.687382 59.4854603,93.3882582 63.8994963,89.2540614 C68.3135323,85.1198646 71.0030222,79.4580656 71.4258963,73.4105058 L71.4258963,95.6879241 C77.7370413,95.6884656 83.7911026,93.1756021 88.2612148,88.6998011 C92.6220356,84.3331659 95.1284278,78.4460128 95.2667118,72.27399 L95.2726349,71.733909 C95.2525884,65.4043429 92.7397249,59.3399873 88.2828868,54.8655407 C83.8260487,50.3910942 77.7876995,47.8706455 71.4868487,47.8543915 Z" fill="#171D1A"></path>
        <path d="M146.359934,51.385875 L145.509609,51.1179595 L145.509609,51.1179595 L142.204155,50.1073089 L142.204155,50.1073089 L137.623289,48.7272067 L137.623289,48.7272067 L136.763618,48.4542047 L136.763618,48.4542047 L136.187256,48.2594249 L136.187256,48.2594249 L135.815325,48.1242869 L135.815325,48.1242869 L135.491812,47.9965087 L135.491812,47.9965087 L135.21374,47.8742692 L135.21374,47.8742692 L134.978135,47.7557477 L134.978135,47.7557477 L134.84319,47.6778996 L134.84319,47.6778996 L134.724915,47.6003551 L134.724915,47.6003551 L134.62243,47.5225746 L134.62243,47.5225746 L134.534854,47.4440185 L134.534854,47.4440185 L134.461305,47.3641475 L134.461305,47.3641475 L134.400902,47.2824218 L134.400902,47.2824218 L134.352763,47.1983021 L134.352763,47.1983021 L134.316007,47.1112487 C134.305554,47.081682 134.296852,47.0515364 134.289753,47.0207221 L134.273119,46.9261828 L134.273119,46.9261828 L134.265225,46.8270913 C134.264588,46.8101667 134.264279,46.7930299 134.264279,46.7756698 C134.264279,45.5691023 136.257063,45.1100498 137.995977,45.0798257 L138.311203,45.0794075 L138.311203,45.0794075 L138.594536,45.0896132 L138.594536,45.0896132 L138.904122,45.1117027 C138.957582,45.1164718 139.011892,45.121809 139.066929,45.1277509 L139.404903,45.1709484 C140.898815,45.3921047 142.719323,46.0712675 142.719323,47.8495153 L157.849871,47.8495153 C157.849871,39.7135915 150.553194,32.5594074 137.655399,32.5594074 C127.956385,32.5594074 119.145109,37.9183407 119.145109,46.7756698 C119.145109,54.3757545 124.574747,58.6668021 133.47542,60.9922032 L139.551552,62.5248955 L139.551552,62.5248955 L140.522143,62.780698 L140.522143,62.780698 L141.168509,62.9598187 L141.168509,62.9598187 L141.748045,63.1305997 L141.748045,63.1305997 L142.098649,63.2409641 L142.098649,63.2409641 L142.572988,63.4029914 L142.572988,63.4029914 L142.856038,63.5096639 C142.901059,63.5274007 142.945014,63.5451259 142.987921,63.5628538 L143.232914,63.6693697 C143.271695,63.687166 143.309462,63.7049937 143.346232,63.7228671 L143.555025,63.8307698 L143.555025,63.8307698 L143.740715,63.9404548 C144.293025,64.2913366 144.510239,64.679346 144.510239,65.2025228 C144.510239,66.3581206 143.038835,66.8225198 141.583005,66.9923348 L141.204554,67.0302127 L141.204554,67.0302127 L140.832676,67.0562904 L140.832676,67.0562904 L140.473238,67.0721326 L140.473238,67.0721326 L140.132104,67.0793039 C140.0771,67.0798635 140.023103,67.080127 139.970235,67.080127 C135.778878,67.080127 132.938226,65.7405291 132.938226,63.5031704 L117.809575,63.5031704 C117.809575,71.9060271 122.972577,76.8161548 131.051843,78.7011572 L131.731817,78.8512481 C133.677266,79.2567219 135.781812,79.4942737 138.015883,79.5700586 L138.809709,79.5900992 C139.076078,79.5945472 139.344192,79.5967661 139.614002,79.5967661 C150.204546,79.5967661 159.640787,74.9481312 159.640787,65.5584847 L159.637567,65.2262143 L159.637567,65.2262143 L159.627439,64.8889859 L159.627439,64.8889859 L159.6097,64.5471292 L159.6097,64.5471292 L159.583649,64.2009742 L159.583649,64.2009742 L159.548583,63.8508506 C159.541949,63.7921842 159.534909,63.7333663 159.527451,63.6744036 L159.477547,63.3189456 L159.477547,63.3189456 L159.416874,62.9603437 C159.405825,62.900333 159.394298,62.8402051 159.382279,62.7799668 L159.304135,62.4172674 L159.304135,62.4172674 L159.213466,62.0522487 C159.197272,61.9912373 159.180526,61.930143 159.163215,61.8689726 L159.052443,61.5010933 C158.777587,60.640836 158.386111,59.7683717 157.83788,58.902556 L157.593209,58.5319541 C155.769281,55.8796796 152.412491,53.3155382 146.359934,51.385875 L146.359934,51.385875 Z M196.850726,54.0368593 C196.850726,62.281296 192.62129,64.8633741 188.641843,65.2500913 L188.263747,65.280395 L188.263747,65.280395 L187.888023,65.2980891 C187.825648,65.3000243 187.763407,65.3014618 187.701319,65.3024155 L187.51553,65.3038392 C183.399853,65.3038392 180.982944,63.4714656 180.316935,57.2059978 L180.254285,56.5419256 C180.244885,56.4285758 180.236007,56.3138815 180.227649,56.1978294 L180.183761,55.4851166 C180.152404,54.8774337 180.134092,54.2351395 180.128859,53.5565678 L180.127289,33.4723386 L164.994574,33.4723386 L164.994574,60.4769524 C164.994574,72.3680847 169.890811,79.6157291 181.283759,79.6157291 C187.062315,79.4288085 192.585143,77.1779048 196.860207,73.2674709 L197.753634,78.7220317 L211.992652,78.7220317 L211.992652,33.4742349 L196.860207,33.4742349 L196.850726,54.0368593 Z M244.038976,32.5637418 C242.244538,32.6948571 240.506447,33.2003556 238.927644,34.0471873 C237.348571,34.8937481 235.963733,36.0634921 234.861985,37.4805672 L234.23702,33.4612317 L219.999898,33.4612317 L219.999898,78.6957545 L235.130717,78.6957545 L235.130717,61.7081905 C235.130717,50.6210878 238.512356,46.8661503 243.05236,46.8661503 C244.496525,46.866963 245.924436,47.1728085 247.243446,47.7636402 L249.202049,34.441346 C247.785515,33.1719111 245.936356,32.4995386 244.038976,32.5637418 Z M279.611598,62.4425989 L268.751238,33.4723386 L251.841151,33.4723386 L270.799509,78.7144466 L288.326434,78.7144466 L307.289397,33.4742349 L290.379852,33.4742349 L279.611598,62.4425989 Z M319.309206,28.6408466 C320.717884,28.6348868 322.094053,28.2158053 323.264339,27.4304677 C324.437333,26.6450489 325.347556,25.5287805 325.886646,24.2227471 C326.425735,22.9166866 326.566603,21.4795378 326.292995,20.0929659 C326.019386,18.7064212 325.339429,17.4327331 324.345228,16.4329515 C323.348317,15.433197 322.080508,14.752237 320.698921,14.4762176 C319.320042,14.200171 317.886984,14.3414722 316.586667,14.8822146 C315.286349,15.4229299 314.172952,16.3388411 313.390053,17.5141113 C312.609862,18.6893545 312.189968,20.0711856 312.189968,21.4849016 L312.189968,21.6761837 L312.189968,21.6761837 C312.203513,22.6028495 312.395852,23.5180834 312.761566,24.3696288 C313.124571,25.2211742 313.652825,25.9923166 314.31382,26.639062 C314.974815,27.2858074 315.755005,27.7953693 316.613757,28.1388698 C317.469799,28.4823704 318.388148,28.6527661 319.309206,28.6408466 Z M326.886265,33.4723386 L311.756529,33.4723386 L311.756529,78.7144466 L326.886265,78.7144466 L326.886265,33.4723386 Z M333.097989,56.0770032 C333.019429,59.1416889 333.550392,62.1912042 334.666497,65.0454011 C335.779894,67.899327 337.454053,70.499691 339.586032,72.6923513 C341.72072,74.8850116 344.269884,76.6255407 347.084529,77.8107259 C349.899175,78.9959111 352.919704,79.6019132 355.972741,79.5927026 C360.396529,79.750637 364.747175,78.4300021 368.34472,75.8377651 L368.34472,61.531564 C367.060656,62.7771598 365.538201,63.7513143 363.872169,64.396055 C362.206138,65.0410667 360.429037,65.3439323 358.64381,65.2865016 C357.413926,65.3301164 356.186751,65.1242328 355.035429,64.6810413 C353.884106,64.2378497 352.835725,63.5665608 351.949884,62.7069968 C351.064042,61.8477037 350.356995,60.817473 349.877503,59.6783407 C349.395302,58.5392085 349.146074,57.314472 349.146074,56.0770032 C349.146074,54.8392635 349.395302,53.614527 349.877503,52.4753947 C350.356995,51.3362624 351.064042,50.3063026 351.949884,49.4467386 C352.835725,48.5871746 353.884106,47.9158857 355.035429,47.4726942 C356.186751,47.0295026 357.413926,46.823619 358.64381,46.8672339 C360.415492,46.7932783 362.184466,47.0712212 363.847788,47.6850794 C365.51382,48.2989376 367.041693,49.2365206 368.34472,50.4444614 L368.34472,36.3178667 C364.747175,33.7256296 360.396529,32.4049947 355.972741,32.5629291 C352.925122,32.568618 349.910011,33.1846434 347.100783,34.3749757 C344.294265,35.5653079 341.750519,37.3061079 339.621249,39.4957884 C337.491979,41.6851979 335.81782,44.2793312 334.696296,47.1262138 C333.577481,49.9733672 333.032974,53.0161101 333.097989,56.0770032 Z M409.117799,39.4494646 C407.248593,35.7844656 402.353439,32.5594074 395.499683,32.5594074 C382.594032,32.5594074 373.692275,43.1087746 373.692275,56.0734815 C373.692275,69.0379175 382.594032,79.5872847 395.499683,79.5872847 C402.358857,79.5872847 407.245884,76.3681862 409.117799,72.6974984 L410.011767,78.6878984 L424.252952,78.6878984 L424.252952,33.4571683 L410.011767,33.4571683 L409.117799,39.4494646 Z M398.170751,65.2867725 L397.856508,65.2867725 C395.442794,65.2185058 393.153693,64.196673 391.484952,62.4431407 C389.816212,60.6898794 388.905989,58.3460571 388.946624,55.9209651 C388.987259,53.4961439 389.978751,51.1851005 391.70709,49.4900825 C393.43272,47.7953354 395.757037,46.8528762 398.170751,46.8672656 C400.60072,46.8672656 402.933164,47.8378667 404.653376,49.5651217 C406.370878,51.2921058 407.337989,53.6348444 407.337989,56.0772741 C407.337989,58.5197037 406.370878,60.8621714 404.653376,62.5894265 C402.933164,64.3166815 400.60072,65.2867725 398.170751,65.2867725 Z M453.339429,20.0515996 L438.206984,20.0515996 L438.206984,33.4639407 L430.464677,33.4639407 L430.464677,47.7704127 L438.206984,47.7704127 L438.206984,78.7063196 L453.339429,78.7063196 L453.339429,47.7704127 L464.286476,47.7704127 L464.286476,33.4639407 L453.339429,33.4639407 L453.339429,20.0515996 Z M490.365968,66.1766772 C484.942962,66.1766772 482.823973,63.6713707 482.247846,61.6059574 L482.182543,61.3449042 C482.173011,61.3018693 482.164143,61.2590902 482.155923,61.2165954 L482.114238,60.9652642 C482.102843,60.8827754 482.093902,60.8016505 482.08728,60.7221164 L512,60.7221164 L512,56.7891979 C512,43.5546751 503.453122,32.5594074 489.480127,32.5594074 C475.596529,32.5594074 466.962963,43.2886519 466.962963,55.8055619 C466.962963,68.5020783 475.954116,79.589181 490.27928,79.589181 C503.453122,79.589181 510.474836,69.933782 511.376931,63.8534434 L498.20309,62.5135746 C497.268487,63.6892783 496.07382,64.6317376 494.713905,65.2675386 C493.356698,65.9030688 491.86946,66.215145 490.371386,66.1785735 L490.365968,66.1766772 Z M489.480127,45.9719111 C493.931005,45.9719111 496.691471,48.1174349 496.867556,50.442836 L482.092698,50.442836 C482.271492,48.1174349 485.029249,45.9719111 489.480127,45.9719111 Z" fill="#171D1A"></path>
    </g>
</svg>

<svg preserveAspectRatio="xMidYMid" viewBox="0 0 512 96" xmlns="http://www.w3.org/2000/svg">
  <g fill="#171D1A">
    <path d="M23.847 22.3V.01A23.792 23.792 0 0 0 7.01 7 24.01 24.01 0 0 0 .006 23.427l-.006.54a24.01 24.01 0 0 0 6.991 16.865 23.793 23.793 0 0 0 16.334 7.003l.52.005a23.792 23.792 0 0 0 16.793-7.009 24.01 24.01 0 0 0 6.99-16.864V.01a23.787 23.787 0 0 0-16.26 6.44 24 24 0 0 0-7.521 15.85Zm47.562 25.547h23.847a24.015 24.015 0 0 0-6.41-16.334 23.803 23.803 0 0 0-15.776-7.557h22.186c0-6.34-2.501-12.422-6.957-16.912A23.792 23.792 0 0 0 71.95.006L71.41 0a23.79 23.79 0 0 0-16.792 7.021 24.008 24.008 0 0 0-6.973 16.411l-.006.522a24.01 24.01 0 0 0 6.979 16.872 23.79 23.79 0 0 0 16.79 7.02Zm-47.552 0H.011a24.014 24.014 0 0 0 6.401 16.33 23.803 23.803 0 0 0 15.767 7.564H.01a24.01 24.01 0 0 0 6.957 16.912A23.792 23.792 0 0 0 23.32 95.69l.537.006a23.79 23.79 0 0 0 16.788-7.024 24.008 24.008 0 0 0 6.971-16.409l.006-.522a24.01 24.01 0 0 0-6.977-16.871 23.79 23.79 0 0 0-16.788-7.023Zm47.63.007h-.06a23.79 23.79 0 0 0-16.796 7.01 24.01 24.01 0 0 0-6.99 16.868v23.956c6.034 0 11.844-2.3 16.258-6.434a24 24 0 0 0 7.527-15.843v22.277A23.79 23.79 0 0 0 88.26 88.7a24.007 24.007 0 0 0 7.006-16.426l.006-.54a24.011 24.011 0 0 0-6.99-16.868 23.792 23.792 0 0 0-16.796-7.012Z"/>
    <path d="m146.36 51.386-.85-.268-3.306-1.01-4.58-1.38-.86-.274-.577-.195-.372-.135-.323-.127-.278-.123-.236-.118-.135-.078-.118-.078-.103-.077-.087-.079-.074-.08-.06-.082-.048-.084-.037-.087a.83.83 0 0 1-.026-.09l-.017-.095-.008-.099v-.051c0-1.207 1.992-1.666 3.731-1.696h.315l.284.01.31.022c.053.004.107.01.162.016l.338.043c1.494.221 3.314.9 3.314 2.679h15.13c0-8.136-7.296-15.29-20.194-15.29-9.699 0-18.51 5.358-18.51 14.216 0 7.6 5.43 11.89 14.33 14.216l6.077 1.533.97.256.647.179.579.17.35.111.475.162.283.107.132.053.245.106.113.054.209.108.186.11c.552.35.77.738.77 1.262 0 1.155-1.472 1.62-2.928 1.79l-.378.037-.372.026-.36.016-.34.007-.163.001c-4.191 0-7.032-1.34-7.032-3.577H117.81c0 8.403 5.163 13.313 13.242 15.198l.68.15c1.945.406 4.05.643 6.284.72l.794.02c.266.004.534.006.804.006 10.59 0 20.027-4.649 20.027-14.039l-.003-.332-.01-.337-.018-.342-.026-.346-.035-.35a13.446 13.446 0 0 0-.022-.177l-.05-.355-.06-.359a12.36 12.36 0 0 0-.035-.18l-.078-.363-.09-.365a11.63 11.63 0 0 0-.05-.183l-.112-.368a11.215 11.215 0 0 0-1.214-2.598l-.245-.371c-1.824-2.652-5.18-5.216-11.233-7.146Zm50.49 2.65c0 8.245-4.229 10.827-8.208 11.214l-.378.03-.376.018-.187.004-.185.002c-4.116 0-6.533-1.833-7.2-8.098l-.062-.664c-.01-.113-.018-.228-.026-.344l-.044-.713a44.08 44.08 0 0 1-.055-1.928l-.002-20.085h-15.132v27.005c0 11.891 4.896 19.139 16.289 19.139a24.239 24.239 0 0 0 15.576-6.349l.894 5.455h14.239V33.474H196.86l-.01 20.563Zm47.189-21.472a12.772 12.772 0 0 0-5.111 1.483 12.83 12.83 0 0 0-4.066 3.434l-.625-4.02H220v45.235h15.13V61.708c0-11.087 3.382-14.842 7.922-14.842 1.445.001 2.872.307 4.191.898l1.959-13.323a7.363 7.363 0 0 0-5.163-1.877Zm35.573 29.879-10.86-28.97h-16.91l18.958 45.24h17.526l18.963-45.24h-16.91l-10.767 28.969Zm39.697-33.802a7.15 7.15 0 0 0 3.955-1.21 7.13 7.13 0 0 0 2.623-3.208 7.18 7.18 0 0 0 .406-4.13 7.16 7.16 0 0 0-1.948-3.66 7.118 7.118 0 0 0-3.646-1.957 7.09 7.09 0 0 0-4.112.406 7.134 7.134 0 0 0-3.197 2.632 7.184 7.184 0 0 0-1.2 3.97v.192a7.086 7.086 0 0 0 2.124 4.963 7.01 7.01 0 0 0 4.995 2.002Zm7.577 4.831h-15.13v45.242h15.13V33.472Zm6.212 22.605a23.005 23.005 0 0 0 1.568 8.968 22.921 22.921 0 0 0 4.92 7.647 22.833 22.833 0 0 0 7.499 5.119 22.718 22.718 0 0 0 8.888 1.782 19.943 19.943 0 0 0 12.372-3.755V61.532a13.34 13.34 0 0 1-9.701 3.755 9.142 9.142 0 0 1-6.694-2.58 9.24 9.24 0 0 1 0-13.26 9.15 9.15 0 0 1 6.694-2.58 13.458 13.458 0 0 1 9.7 3.577V36.318a19.943 19.943 0 0 0-12.371-3.755 22.845 22.845 0 0 0-8.872 1.812 22.914 22.914 0 0 0-7.48 5.12 23.075 23.075 0 0 0-6.523 16.582Zm76.02-16.628c-1.87-3.665-6.765-6.89-13.618-6.89-12.906 0-21.808 10.55-21.808 23.514 0 12.965 8.902 23.514 21.808 23.514 6.859 0 11.746-3.219 13.618-6.89l.894 5.99h14.241v-45.23h-14.241l-.894 5.992ZM398.17 65.287h-.314a9.153 9.153 0 0 1-6.372-2.844 9.234 9.234 0 0 1-2.538-6.522 9.223 9.223 0 0 1 2.76-6.43 9.149 9.149 0 0 1 6.464-2.624c2.43 0 4.762.97 6.482 2.698a9.238 9.238 0 0 1 0 13.024 9.15 9.15 0 0 1-6.482 2.698Zm55.168-45.235h-15.132v13.412h-7.742V47.77h7.742v30.936h15.132V47.77h10.947V33.464H453.34V20.052Zm37.027 46.125c-5.423 0-7.542-2.506-8.118-4.571l-.065-.261a4.872 4.872 0 0 1-.027-.128l-.042-.252a4.515 4.515 0 0 1-.027-.243H512V56.79c0-13.234-8.547-24.23-22.52-24.23-13.883 0-22.517 10.73-22.517 23.247 0 12.696 8.991 23.783 23.316 23.783 13.174 0 20.196-9.655 21.098-15.736l-13.174-1.34a9.712 9.712 0 0 1-7.832 3.666l-.005-.002Zm-.886-20.205c4.451 0 7.211 2.145 7.388 4.47h-14.775c.178-2.325 2.936-4.47 7.387-4.47Z"/>
  </g>
</svg>
